X:1
T:The Resurrection
T:The Resurrection
T:C. R. Street
T:Possibly by Aldine Silliman Kieffer (1840-1904)
T:Public Domain Courtesy of the Cyber Hymnal™
T:Public Domain Courtesy of the Cyber Hymnal™
C:C. R. Street
Z:Public Domain
Z:Courtesy of the Cyber Hymnal™
%%score 1 ( 2 3 )
L:1/8
Q:1/4=95
M:4/4
K:Eb
V:1 treble 
V:2 bass 
V:3 bass 
V:1
 ([EG][FA]) | [GB][GB][GB][GB] [GB][FA][EG][EB] | [Ee][Ae][Ae][Ae] [Ae][Ae][Ad][Ac] | %3
w: 1.~In~the *|re- sur- rect- ion morn- ing We will|see the Sav- ior com- ing, And the|
w: 2.~We *|feel the ad- vent glo- ry While the|vi- sion seems to tar- ry, We will|
w: 3.~By *|faith we can dis- cov- er That our|war- fare’ll soon be o- ver, And we’ll|
w: 4.~We~will *|tell the pleas- ing stor- y When we|meet our friends in glor- y, And we’ll|
 [GB][GB][GB][GB] [Ge][GB][EG][FA] | [GB]>[FA] [EG][FA] !fermata![DF]2 ||"^Refrain" [EG][FA] | %6
w: sons of God a- shout- ing in the|king- dom of the Lord.||
w: com- fort one a- no- ther with the|words of Ho- ly Writ.|We shall|
w: short- ly hail each o- ther on fair|Heav- en’s hap- py shore.||
w: keep our- selves all read- y for to|hail the heav’n- ly King.||
 [GB]6 [EG][GB] | [Ae]6 [Ad][Ac] | [GB][GB][GB][GB] [GB][FA][EG][EA] | [DF]6 [EG][FA] | %10
w: ||||
w: rise, we shall|rise! In the|re- sur- rect- ion morn- ing we shall|rise! We shall|
w: ||||
w: ||||
 [GB]6 [EG][GB] | [Ae]6 [Ad][Ac] | [GB][GB][GB][GB] [FB][FB][Ac][Ad] | [Ge]6 |] %14
w: ||||
w: rise, we shall|rise! In the|re- sur- rect- ion morn- ing we shall|rise!|
w: ||||
w: ||||
V:2
 ([E,B,][E,B,]) | [E,B,][E,B,][E,E][E,E] [E,E][E,E][E,E][G,E] | %2
w: ~ *|~ ~ ~ ~ ~ ~ ~ ~|
 [A,C][A,C][A,C][A,C] [A,C][A,C][A,C][A,E] | [E,E][E,E][E,E][E,E] [E,B,][E,B,][E,B,][E,B,] | %4
w: ~ ~ ~ ~ ~ ~ ~ ~|~ ~ ~ ~ ~ ~ ~ ~|
 [B,,E]>[B,,E] [B,,E][B,,B,] !fermata![B,,B,]2 || E,E, | [E,E]>[E,E] [E,E][E,B,] E,2 E,E, | %7
w: ~ ~ ~ ~ ~|When the|trump of God shall sound, when the|
 C2 C2 [A,C]2 A,A, | [E,E][E,E][E,E][E,E] B,2 B,2 | B,2 [B,,B,][B,,B,] [B,,B,]2 z D, | %10
w: trump of God shall sound,|It shall wake the sleep- ing|na- tions, when the trump|
 [E,E]>[E,E] [E,E][E,B,] E,2 z E, | C2 C2 [A,C]2 [A,E][A,E] | %12
w: of God shall sound! The dead|in Christ shall rise, the|
 [B,E][B,E][B,,E][B,,E] [B,,D][B,,D][B,,B,][B,,B,] | [E,B,]6 |] %14
w: dead in Christ shall rise, * * *||
V:3
 x2 | x8 | x8 | x8 | x6 || x2 | x8 | A,>A, A,A, x4 | x4 E,E,E,E, | B,,>B,, x6 | x8 | %11
 A,>A, A,A, x4 | x8 | x6 |] %14

